static/images/logos/peakscale.svg

<?xml version="1.0" encoding="UTF-8" standalone="no"?>
<!DOCTYPE svg PUBLIC "-//W3C//DTD SVG 1.1//EN" "http://www.w3.org/Graphics/SVG/1.1/DTD/svg11.dtd">
<svg width="100%" height="100%" viewBox="0 0 318 138" version="1.1" xmlns="http://www.w3.org/2000/svg" xmlns:xlink="http://www.w3.org/1999/xlink" xml:space="preserve" xmlns:serif="http://www.serif.com/" style="fill-rule:evenodd;clip-rule:evenodd;stroke-linejoin:round;stroke-miterlimit:2;">
    <g transform="matrix(1,0,0,1,-241.208,-298.111)">
        <g transform="matrix(1,0,0,1,250.08,414.16)">
            <path d="M0,13.086L0,8.103L11.83,8.103C13.639,8.103 15.051,7.59 16.064,6.563C17.077,5.537 17.583,4.187 17.583,2.511C17.583,0.81 17.077,-0.54 16.064,-1.54C15.051,-2.539 13.639,-3.039 11.83,-3.039L-3.768,-3.039L-3.768,21.27L-8.872,21.27L-8.872,-8.184L11.83,-8.184C13.532,-8.184 15.051,-7.934 16.388,-7.435C17.725,-6.935 18.853,-6.232 19.771,-5.328C20.689,-4.423 21.392,-3.322 21.877,-2.026C22.364,-0.729 22.606,0.729 22.606,2.35C22.606,3.943 22.364,5.395 21.877,6.705C21.392,8.015 20.689,9.143 19.771,10.088C18.853,11.033 17.725,11.769 16.388,12.295C15.051,12.822 13.532,13.086 11.83,13.086L0,13.086Z" style="fill:rgb(9,24,54);fill-rule:nonzero;"/>
        </g>
        <g transform="matrix(1,0,0,1,0,41.407)">
            <path d="M285.205,376.885L301.532,376.885L301.532,381.22L285.205,381.22L285.205,376.885ZM276.333,394.023L276.333,364.57L302.626,364.57L302.626,369.714L281.437,369.714L281.437,388.877L302.667,388.877L302.667,394.023L276.333,394.023Z" style="fill:rgb(9,24,54);fill-rule:nonzero;"/>
        </g>
        <g transform="matrix(1,0,0,1,337.791,405.571)">
            <path d="M0,29.859L-4.416,22.445L-18.353,22.445L-15.921,18.271L-6.887,18.271L-13.45,7.253L-26.82,29.859L-32.694,29.859L-15.76,1.661C-15.463,1.149 -15.111,0.743 -14.707,0.446C-14.301,0.149 -13.815,0 -13.248,0C-12.681,0 -12.201,0.149 -11.81,0.446C-11.418,0.743 -11.074,1.149 -10.776,1.661L6.199,29.859L0,29.859Z" style="fill:rgb(9,24,54);fill-rule:nonzero;"/>
        </g>
        <g transform="matrix(1,0,0,1,371.418,405.977)">
            <path d="M0,29.453L-16.489,16.488C-16.949,16.138 -17.238,15.793 -17.36,15.455C-17.482,15.118 -17.542,14.746 -17.542,14.342C-17.542,13.882 -17.462,13.476 -17.299,13.126C-17.138,12.775 -16.787,12.396 -16.246,11.991L-0.648,0L7.251,0L-12.033,14.382L7.859,29.453L0,29.453ZM-24.268,0L-19.122,0L-19.122,29.453L-24.268,29.453L-24.268,0Z" style="fill:rgb(9,24,54);fill-rule:nonzero;"/>
        </g>
        <g transform="matrix(1,0,0,1,394.51,405.977)">
            <path d="M0,29.453L0,24.307L22.08,24.307C23.458,24.307 24.518,23.957 25.259,23.254C26.003,22.553 26.375,21.62 26.375,20.459C26.375,19.189 26.003,18.237 25.259,17.602C24.518,16.968 23.458,16.65 22.08,16.65L8.548,16.65C7.17,16.65 5.921,16.441 4.802,16.022C3.68,15.604 2.735,15.023 1.965,14.28C1.195,13.538 0.601,12.653 0.182,11.627C-0.237,10.6 -0.446,9.479 -0.446,8.265C-0.446,7.076 -0.25,5.975 0.142,4.962C0.533,3.949 1.114,3.078 1.884,2.349C2.654,1.62 3.606,1.047 4.739,0.627C5.874,0.209 7.17,0 8.629,0L29.778,0L29.778,5.144L8.629,5.144C7.44,5.144 6.523,5.462 5.874,6.097C5.226,6.731 4.901,7.616 4.901,8.75C4.901,9.885 5.232,10.763 5.895,11.384C6.557,12.005 7.456,12.315 8.589,12.315L22.08,12.315C25.079,12.315 27.353,13.018 28.906,14.422C30.459,15.827 31.235,17.961 31.235,20.823C31.235,22.066 31.046,23.214 30.669,24.266C30.29,25.32 29.723,26.231 28.966,27.002C28.211,27.771 27.258,28.373 26.111,28.805C24.963,29.237 23.62,29.453 22.08,29.453L0,29.453Z" style="fill:rgb(5,128,196);fill-rule:nonzero;"/>
        </g>
        <g transform="matrix(1,0,0,1,443.612,405.977)">
            <path d="M0,29.453C-2.053,29.453 -3.949,29.067 -5.691,28.298C-7.434,27.528 -8.947,26.474 -10.23,25.138C-11.513,23.802 -12.512,22.215 -13.228,20.378C-13.943,18.541 -14.302,16.557 -14.302,14.422C-14.302,12.262 -13.943,10.29 -13.228,8.507C-12.512,6.724 -11.513,5.205 -10.23,3.949C-8.947,2.693 -7.434,1.722 -5.691,1.032C-3.949,0.344 -2.053,0 0,0L15.962,0L15.962,5.144L0,5.144C-1.323,5.144 -2.546,5.381 -3.666,5.853C-4.788,6.326 -5.753,6.981 -6.562,7.818C-7.373,8.656 -8.009,9.655 -8.467,10.816C-8.927,11.978 -9.156,13.262 -9.156,14.666C-9.156,16.043 -8.927,17.326 -8.467,18.514C-8.009,19.703 -7.373,20.722 -6.562,21.572C-5.753,22.424 -4.788,23.092 -3.666,23.578C-2.546,24.064 -1.323,24.307 0,24.307L15.962,24.307L15.962,29.453L0,29.453Z" style="fill:rgb(5,128,196);fill-rule:nonzero;"/>
        </g>
        <g transform="matrix(1,0,0,1,494.456,405.571)">
            <path d="M0,29.859L-4.415,22.445L-18.353,22.445L-15.921,18.271L-6.887,18.271L-13.45,7.253L-26.819,29.859L-32.694,29.859L-15.759,1.661C-15.463,1.149 -15.111,0.743 -14.706,0.446C-14.301,0.149 -13.814,0 -13.248,0C-12.681,0 -12.201,0.149 -11.81,0.446C-11.418,0.743 -11.073,1.149 -10.776,1.661L6.199,29.859L0,29.859Z" style="fill:rgb(5,128,196);fill-rule:nonzero;"/>
        </g>
        <g transform="matrix(1,0,0,1,503.815,405.977)">
            <path d="M0,29.453L0,0L5.146,0L5.146,24.307L24.956,24.307L24.956,29.453L0,29.453Z" style="fill:rgb(5,128,196);fill-rule:nonzero;"/>
        </g>
        <g transform="matrix(1,0,0,1,0,41.407)">
            <path d="M541.33,376.885L557.658,376.885L557.658,381.22L541.33,381.22L541.33,376.885ZM532.458,394.023L532.458,364.57L558.752,364.57L558.752,369.714L537.563,369.714L537.563,388.877L558.792,388.877L558.792,394.023L532.458,394.023Z" style="fill:rgb(5,128,196);fill-rule:nonzero;"/>
        </g>
        <g transform="matrix(1,0,0,1,433.935,387.08)">
            <path d="M0,-52.003L-30.098,-21.627C-31.654,-20.055 -34.203,-20.084 -35.724,-21.69L-49.842,-36.597C-51.345,-38.184 -53.855,-38.233 -55.42,-36.709L-60.57,-31.689C-62.133,-30.165 -62.149,-27.657 -60.606,-26.114L-35.67,-1.179C-34.158,0.334 -31.711,0.353 -30.175,-1.136L0.172,-30.555C1.705,-32.041 4.146,-32.025 5.66,-30.52L36.864,0.507C37.535,1.174 38.441,1.548 39.388,1.548L50.708,1.548C53.9,1.548 55.494,-2.315 53.231,-4.566L5.545,-52.023C4.01,-53.551 1.524,-53.542 0,-52.003" style="fill:rgb(5,128,196);fill-rule:nonzero;"/>
        </g>
        <g transform="matrix(1,0,0,1,403.389,365.813)">
            <path d="M0,-45.267L13.64,-31.695C15.156,-30.186 17.603,-30.173 19.135,-31.666L24.388,-36.781C25.954,-38.307 25.968,-40.821 24.418,-42.364L0.104,-66.561C-1.414,-68.073 -3.865,-68.083 -5.397,-66.585L-90.533,16.679C-92.826,18.921 -91.238,22.816 -88.031,22.816L-76.621,22.816C-75.686,22.816 -74.788,22.449 -74.12,21.796L-5.5,-45.291C-3.969,-46.788 -1.519,-46.778 0,-45.267" style="fill:rgb(9,24,54);fill-rule:nonzero;"/>
        </g>
    </g>
</svg>

<svg xmlns="http://www.w3.org/2000/svg" xml:space="preserve" style="fill-rule:evenodd;clip-rule:evenodd;stroke-linejoin:round;stroke-miterlimit:2" viewBox="0 0 318 138"><path d="M0 13V8.2h11.8q2.8 0 4.3-1.5t1.5-4q0-2.7-1.5-4.1Q14.5-3 11.8-3H-3.8v24.3h-5V-8.2h20.6q2.6 0 4.6.8t3.4 2 2 3.4q.9 1.9.8 4.4 0 2.3-.7 4.3a9.5 9.5 0 0 1-5.5 5.6q-2 .8-4.6.8z" style="fill:#091836;fill-rule:nonzero" transform="translate(8.9 116)"/><path d="M285.2 376.9h16.3v4.3h-16.3zm-8.9 17.1v-29.4h26.3v5.1h-21.2V389h21.3v5.1z" style="fill:#091836;fill-rule:nonzero" transform="translate(-241.2 -256.7)"/><path d="m0 29.9-4.4-7.5h-14l2.5-4.1h9l-6.5-11-13.4 22.6h-5.9l17-28.2q.3-.9 1-1.3t1.5-.4q.8 0 1.4.4t1 1.3l17 28.2z" style="fill:#091836;fill-rule:nonzero" transform="translate(96.6 107.5)"/><path d="m0 29.5-16.5-13-.9-1a3 3 0 0 1 .1-2.4q.3-.5 1-1.1L-.5 0h7.9L-12 14.4l19.9 15zM-24.3 0h5.2v29.5h-5.2z" style="fill:#091836;fill-rule:nonzero" transform="translate(130.2 107.9)"/><path d="M0 29.5v-5.2h22q2.2 0 3.3-1 1-1.1 1-2.8 0-2-1-2.9-1.2-1-3.2-1H8.5q-2 0-3.7-.6a7.7 7.7 0 0 1-4.6-4.4q-.6-1.5-.6-3.3A9 9 0 0 1 0 5 7 7 0 0 1 2 2.3Q3 1.3 4.7.6q1.8-.6 4-.6h21v5.1h-21q-2 0-2.8 1-1 .9-1 2.7 0 1.6 1 2.6t2.7 1H22q4.5 0 6.8 2 2.4 2.1 2.3 6.4 0 1.9-.5 3.5a7 7 0 0 1-4.6 4.5q-1.7.6-4 .7z" style="fill:#0580c4;fill-rule:nonzero" transform="translate(153.3 107.9)"/><path d="M0 29.5a14 14 0 0 1-13.2-9.1q-1-2.8-1.1-6 0-3.2 1-5.9A13 13 0 0 1-5.6 1Q-3 0 0 0h16v5.1H0q-2 0-3.7.8a9 9 0 0 0-4.8 5q-.6 1.6-.7 3.8 0 2 .7 3.8t2 3A9 9 0 0 0 0 24.4h16v5.2z" style="fill:#0580c4;fill-rule:nonzero" transform="translate(202.4 107.9)"/><path d="m0 29.9-4.4-7.5h-14l2.5-4.1h9l-6.5-11-13.4 22.6h-5.9l17-28.2q.3-.9 1-1.3t1.5-.4q.8 0 1.4.4t1 1.3l17 28.2z" style="fill:#0580c4;fill-rule:nonzero" transform="translate(253.2 107.5)"/><path d="M0 29.5V0h5.1v24.3H25v5.2z" style="fill:#0580c4;fill-rule:nonzero" transform="translate(262.6 107.9)"/><path d="M541.3 376.9h16.4v4.3h-16.4zm-8.8 17.1v-29.4h26.3v5.1h-21.2V389h21.2v5.1z" style="fill:#0580c4;fill-rule:nonzero" transform="translate(-241.2 -256.7)"/><path d="m0-52-30.1 30.4a4 4 0 0 1-5.6 0l-14.1-15a4 4 0 0 0-5.6-.1l-5.2 5a4 4 0 0 0 0 5.6l25 25a4 4 0 0 0 5.4 0L.2-30.6a4 4 0 0 1 5.5 0L36.9.6q1 1 2.5 1h11.3c3.2 0 4.8-3.8 2.5-6L5.5-52A4 4 0 0 0 0-52" style="fill:#0580c4;fill-rule:nonzero" transform="translate(192.7 89)"/><path d="m0-45.3 13.6 13.6a4 4 0 0 0 5.5 0l5.3-5a4 4 0 0 0 0-5.7L.1-66.6a4 4 0 0 0-5.5 0l-85.1 83.3a3.6 3.6 0 0 0 2.5 6.1h11.4q1.5 0 2.5-1l68.6-67a4 4 0 0 1 5.5 0" style="fill:#091836;fill-rule:nonzero" transform="translate(162.2 67.7)"/></svg>
